X:205
T:A. A. Cameron's
M:4/4l
K:D
eA3 A4 B3Gd3B|eA3 A4 d3g (3f2e2d2|eA3 A4 B3Gd3B|BG3 G3B d3g (3f2e2d2:|
Be3e3f g3ea3f|Be3e3f g3e (3f2e2d2|Be3e3f g3ea3f|dB3G3B d3g (3f2e2d2:|
